.local/share/icons/Gruvbox-Plus-Dark/mimetypes/scalable/application-vnd.openxmlformats-officedocument.spreadsheetml.sheet.svg

<svg width="256" height="256" viewBox="0 0 256 256" fill="none" xmlns="http://www.w3.org/2000/svg">
<g opacity="0.4" filter="url(#filter0_f)">
<path d="M55.0839 15.5636H155.608L216.009 75.7129L216.011 224.609C216.011 233.52 208.749 240.737 199.838 240.737H55.0838C46.1734 240.737 39 233.564 39 224.654V31.6474C39 22.737 46.1734 15.5636 55.0838 15.5636H55.0839Z" fill="#282828"/>
</g>
<path d="M55.0839 15H155.608L216.009 75.1493L216.011 224.045C216.011 232.956 208.749 240.174 199.838 240.174H55.0838C46.1734 240.174 39 233 39 224.09V31.0838C39 22.1734 46.1734 15 55.0838 15H55.0839Z" fill="#ebdbb2"/>
<path opacity="0.2" d="M199.838 240.174C208.749 240.174 216.011 232.956 216.011 224.046L216.01 186.5H39V224.09C39 233 46.1734 240.174 55.0838 240.174H199.838Z" fill="url(#paint0_linear)"/>
<path fill-rule="evenodd" clip-rule="evenodd" d="M155.608 20.3191H55.0839C49.1112 20.3191 44.3191 25.1111 44.3191 31.0838V224.09C44.3191 230.063 49.1111 234.855 55.0838 234.855H199.838C205.83 234.855 210.692 229.999 210.692 224.046V75.1493L155.608 20.3191ZM155.608 15H55.0839C46.1735 15 39 22.1734 39 31.0838V224.09C39 233 46.1734 240.174 55.0838 240.174H199.838C208.749 240.174 216.011 232.956 216.011 224.045L216.009 75.1493L155.608 15Z" fill="url(#paint1_linear)"/>
<path d="M97.0191 226H102.579L93.7391 211.52L102.019 198H96.4591L90.9791 207L85.4991 198H79.9391L88.1791 211.52L79.3391 226H84.8991L90.9791 216.08L97.0191 226ZM107.58 226H125.98V221.4H112.38V198H107.58V226ZM139.157 226.48C144.677 226.48 148.997 223.44 148.997 218.04C148.997 212.12 143.957 210.36 139.877 208.92C136.957 207.96 134.517 207.12 134.517 205.08C134.517 203.16 135.997 202.08 138.517 202.08C141.157 202.08 142.757 203.32 143.477 204.96L147.797 203.52C146.797 200.08 143.717 197.52 138.837 197.52C132.957 197.52 129.637 200.96 129.637 205.04C129.637 210.36 134.117 211.92 138.117 213.28C141.277 214.36 144.117 215.36 144.117 218.04C144.117 220.6 142.197 221.92 139.317 221.92C136.437 221.92 134.197 220.16 133.037 217.6L128.597 219.24C130.117 223.68 133.997 226.48 139.157 226.48ZM170.105 226H175.665L166.825 211.52L175.105 198H169.545L164.065 207L158.585 198H153.025L161.265 211.52L152.425 226H157.985L164.065 216.08L170.105 226Z" fill="url(#paint2_linear)"/>
<path d="M128.197 58C110.136 61.1018 92.0662 65.2161 74.0053 68.2607C74.0053 94.7536 73.9933 121.258 74.0053 147.762C91.9717 150.795 109.947 154.842 127.879 158H133.26V58H128.197ZM116.142 89.1714C112.996 95.3857 109.839 101.6 106.635 107.791C109.874 114.152 113.185 120.467 116.436 126.829C113.597 126.67 110.77 126.498 107.932 126.305C105.929 121.568 103.49 116.992 102.052 112.038C100.45 116.651 98.1642 121.001 96.3272 125.522C93.7467 125.488 91.1671 125.386 88.5866 125.283C91.6143 119.569 94.5365 113.809 97.6577 108.129C95.0078 102.279 92.0976 96.5429 89.3644 90.7277C91.9569 90.5795 94.5495 90.433 97.1411 90.2964C98.8957 94.7384 100.815 99.1214 102.264 103.677C103.82 98.8491 106.14 94.3062 108.131 89.6375C110.793 89.4554 113.468 89.2964 116.142 89.1714ZM136.964 72.2857V79.4286H148.075V86.5714H136.964V90.1429H148.075V97.2982H136.964V100.857H148.075V108H136.964V111.571H148.075V118.714H136.964V122.286H148.075V129.429H136.964V133H148.075V140.143H136.964V147.286H174V72.2857H136.964ZM151.778 79.4286H166.593V86.5714H151.778V79.4286ZM151.778 90.1429H166.593V97.2982H151.778V90.1429ZM151.778 100.857H166.593V108H151.778V100.857ZM151.778 111.571H166.593V118.714H151.778V111.571ZM151.778 122.286H166.593V129.429H151.778V122.286ZM151.778 133H166.593V140.143H151.778V133Z" fill="url(#paint3_linear)"/>
<path opacity="0.25" d="M155.608 17V61.2306C155.608 70.141 162.867 77.1605 171.777 77.1605L216.009 77.1493V75.1493L155.608 17Z" fill="#282828"/>
<path d="M155.608 15V59.2306C155.608 68.141 162.867 75.1605 171.777 75.1605L216.009 75.1493L155.608 15Z" fill="url(#paint4_linear)"/>
<defs>
<filter id="filter0_f" x="23.8778" y="0.441412" width="207.255" height="255.418" filterUnits="userSpaceOnUse" color-interpolation-filters="sRGB">
<feFlood flood-opacity="0" result="BackgroundImageFix"/>
<feBlend mode="normal" in="SourceGraphic" in2="BackgroundImageFix" result="shape"/>
<feGaussianBlur stdDeviation="7.5611" result="effect1_foregroundBlur"/>
</filter>
<linearGradient id="paint0_linear" x1="127.507" y1="186.5" x2="127.507" y2="240.175" gradientUnits="userSpaceOnUse">
<stop offset="1e-07" stop-color="#8ec07c"/>
<stop offset="1" stop-color="#689d6a"/>
</linearGradient>
<linearGradient id="paint1_linear" x1="127.507" y1="15" x2="127.507" y2="240.178" gradientUnits="userSpaceOnUse">
<stop offset="1e-07" stop-color="#8ec07c"/>
<stop offset="1" stop-color="#689d6a"/>
</linearGradient>
<linearGradient id="paint2_linear" x1="127.502" y1="187" x2="127.502" y2="240.001" gradientUnits="userSpaceOnUse">
<stop offset="1e-07" stop-color="#8ec07c"/>
<stop offset="1" stop-color="#689d6a"/>
</linearGradient>
<linearGradient id="paint3_linear" x1="124.001" y1="58" x2="124.001" y2="158.002" gradientUnits="userSpaceOnUse">
<stop offset="1e-07" stop-color="#8ec07c"/>
<stop offset="1" stop-color="#689d6a"/>
</linearGradient>
<linearGradient id="paint4_linear" x1="185.809" y1="15" x2="185.809" y2="75.1616" gradientUnits="userSpaceOnUse">
<stop offset="1e-07" stop-color="#8ec07c"/>
<stop offset="1" stop-color="#689d6a"/>
</linearGradient>
</defs>
</svg>

<svg width="256" height="256" fill="none" version="1.1" viewBox="0 0 256 256" xmlns="http://www.w3.org/2000/svg">
  <path d="m55.08 15h100.5l60.4 60.15 2e-3 148.9c0 8.911-7.262 16.13-16.17 16.13h-144.8c-8.91 0-16.08-7.174-16.08-16.08v-193c0-8.91 7.173-16.08 16.08-16.08h1e-4z" fill="#ebdbb2"/>
  <path d="m199.8 240.2c8.911 0 16.17-7.218 16.17-16.13l-1e-3 -37.55h-177v37.59c0 8.91 7.173 16.08 16.08 16.08h144.8z" fill="url(#paint0_linear)" opacity=".2"/>
  <path d="m155.6 20.32h-100.5c-5.973 0-10.76 4.792-10.76 10.76v193c0 5.973 4.792 10.76 10.76 10.76h144.8c5.992 0 10.85-4.856 10.85-10.81v-148.9l-55.08-54.83zm0-5.319h-100.5c-8.91 0-16.08 7.173-16.08 16.08v193c0 8.91 7.173 16.08 16.08 16.08h144.8c8.911 0 16.17-7.218 16.17-16.13l-2e-3 -148.9-60.4-60.15z" clip-rule="evenodd" fill="url(#paint1_linear)" fill-rule="evenodd"/>
  <path d="m97.02 226h5.56l-8.84-14.48 8.28-13.52h-5.56l-5.48 9-5.48-9h-5.56l8.24 13.52-8.84 14.48h5.56l6.08-9.92 6.04 9.92zm10.56 0h18.4v-4.6h-13.6v-23.4h-4.8v28zm31.58 0.48c5.52 0 9.84-3.04 9.84-8.44 0-5.92-5.04-7.68-9.12-9.12-2.92-0.96-5.36-1.8-5.36-3.84 0-1.92 1.48-3 4-3 2.64 0 4.24 1.24 4.96 2.88l4.32-1.44c-1-3.44-4.08-6-8.96-6-5.88 0-9.2 3.44-9.2 7.52 0 5.32 4.48 6.88 8.48 8.24 3.16 1.08 6 2.08 6 4.76 0 2.56-1.92 3.88-4.8 3.88s-5.12-1.76-6.28-4.32l-4.44 1.64c1.52 4.44 5.4 7.24 10.56 7.24zm30.95-0.48h5.56l-8.84-14.48 8.28-13.52h-5.56l-5.48 9-5.48-9h-5.56l8.24 13.52-8.84 14.48h5.56l6.08-9.92 6.04 9.92z" fill="url(#paint2_linear)"/>
  <path d="m128.2 58c-18.06 3.102-36.13 7.216-54.19 10.26 0 26.49-0.012 53 0 79.5 17.97 3.033 35.94 7.08 53.87 10.24h5.381v-100h-5.063zm-12.06 31.17c-3.146 6.214-6.303 12.43-9.507 18.62 3.239 6.361 6.55 12.68 9.801 19.04-2.839-0.159-5.666-0.331-8.504-0.524-2.003-4.737-4.442-9.313-5.88-14.27-1.602 4.613-3.888 8.963-5.725 13.48-2.58-0.034-5.16-0.136-7.741-0.239 3.028-5.714 5.95-11.47 9.071-17.15-2.65-5.85-5.56-11.59-8.293-17.4 2.592-0.1482 5.185-0.2947 7.777-0.4313 1.755 4.442 3.674 8.825 5.123 13.38 1.556-4.828 3.876-9.371 5.867-14.04 2.662-0.1821 5.337-0.3411 8.011-0.4661zm20.82-16.89v7.143h11.11v7.143h-11.11v3.572h11.11v7.155h-11.11v3.559h11.11v7.143h-11.11v3.571h11.11v7.143h-11.11v3.572h11.11v7.143h-11.11v3.571h11.11v7.143h-11.11v7.143h37.04v-75h-37.04zm14.81 7.143h14.82v7.143h-14.82v-7.143zm0 10.71h14.82v7.155h-14.82v-7.155zm0 10.71h14.82v7.143h-14.82v-7.143zm0 10.71h14.82v7.143h-14.82v-7.143zm0 10.72h14.82v7.143h-14.82v-7.143zm0 10.71h14.82v7.143h-14.82v-7.143z" fill="url(#paint3_linear)"/>
  <path d="m155.6 17v44.23c0 8.91 7.259 15.93 16.17 15.93l44.23-0.0112v-2l-60.4-58.15z" fill="#282828" opacity=".25"/>
  <path d="m155.6 15v44.23c0 8.91 7.259 15.93 16.17 15.93l44.23-0.0112-60.4-60.15z" fill="url(#paint4_linear)"/>
  <defs>
    <linearGradient id="paint0_linear" x1="127.5" x2="127.5" y1="186.5" y2="240.2" gradientUnits="userSpaceOnUse">
      <stop stop-color="#8ec07c" offset="1e-7"/>
      <stop stop-color="#689d6a" offset="1"/>
    </linearGradient>
    <linearGradient id="paint1_linear" x1="127.5" x2="127.5" y1="15" y2="240.2" gradientUnits="userSpaceOnUse">
      <stop stop-color="#8ec07c" offset="1e-7"/>
      <stop stop-color="#689d6a" offset="1"/>
    </linearGradient>
    <linearGradient id="paint2_linear" x1="127.5" x2="127.5" y1="187" y2="240" gradientUnits="userSpaceOnUse">
      <stop stop-color="#8ec07c" offset="1e-7"/>
      <stop stop-color="#689d6a" offset="1"/>
    </linearGradient>
    <linearGradient id="paint3_linear" x1="124" x2="124" y1="58" y2="158" gradientUnits="userSpaceOnUse">
      <stop stop-color="#8ec07c" offset="1e-7"/>
      <stop stop-color="#689d6a" offset="1"/>
    </linearGradient>
    <linearGradient id="paint4_linear" x1="185.8" x2="185.8" y1="15" y2="75.16" gradientUnits="userSpaceOnUse">
      <stop stop-color="#8ec07c" offset="1e-7"/>
      <stop stop-color="#689d6a" offset="1"/>
    </linearGradient>
  </defs>
</svg>
